X: 1305
T: Bowral Jig
B: australian traditional tunes wiki
M:6/8
L:1/8
R: Jig
Q: 3/8=100
K:D
V:1 
|:B|"D"dcd A2G|F2GA3|"C"=cBcA2G|"D"FGFD2A|
"D"dcd A2G|F2GA2g|fed "A7"ABc|"D"d3d2:|
|:e|"D"fef def|"G"gfg efg|"D"afd dcd|"A7"ecAA2e|
"D"fef def|"G"gfg efg|"D"afd "A7"ecA|"D"d3d2:|
% abcbook-tune_id 6342d53a03ef9177cb2d17ca


% abcbook-boost 0
% abcbook-tablature 
% abcbook-transpose 
% abcbook-lastupdated 1665324358295
% abcbook-soundfonts 
% abcbook-repeats 1
% NFF Book 2007

